icons/folder-stencil-open.svg

<svg clip-rule="evenodd" stroke-linejoin="round" stroke-miterlimit="1.4142" version="1.1" viewBox="0 0 24 24" xml:space="preserve" xmlns="http://www.w3.org/2000/svg"><path d="m19 20h-15c-1.11 0-2-.9-2-2v-12c0-1.11.89-2 2-2h6l2 2h7c1.097 0 2 .903 2 2h-17v10l2.14-8h17.07l-2.28 8.5c-.23.87-1.01 1.5-1.93 1.5z" fill="#e57373" style="fill:#45403d"/><g transform="matrix(.56815 0 0 .56815 8.8739 9.409)" style="fill:#bbdefb"><g transform="translate(-3.3597e-5,-5e-5)" style="fill:#bbdefb"><path d="m9.8376 14.066h10.021l-5.4167 5.9341h-9.9666z" style="fill:#7daea3"/><path d="m26.25 7.033h-20.586l-5.4138 5.934h20.586z" style="fill:#7daea3"/><path d="m12.041 0h9.9836l-5.3917 5.9341h-9.9916z" style="fill:#7daea3"/></g></g></svg>

<svg clip-rule="evenodd" stroke-linejoin="round" stroke-miterlimit="1.414" viewBox="0 0 24 24" xml:space="preserve" xmlns="http://www.w3.org/2000/svg"><path d="M19 20H4a2 2 0 0 1-2-2V6c0-1.11.89-2 2-2h6l2 2h7c1.097 0 2 .903 2 2H4v10l2.14-8h17.07l-2.28 8.5c-.23.87-1.01 1.5-1.93 1.5z" fill="#e57373" style="fill:#448aff"/><path d="M9.838 14.066h10.02L14.443 20H4.475zM26.25 7.033H5.664L.25 12.967h20.586zM12.041 0h9.984l-5.392 5.934H6.64z" style="fill:#bbdefb" transform="translate(8.874 9.409) scale(.56815)"/></svg>
